X:560
T:Storrer's Hornpipe 
C:Joe Buchanan's Scottish Tome - Page 145.2
I:145 2
C:Bank's Hornpipe. WI.030
Z:Carl Allison
R:Reel
L:1/8
M:C
K:A
ed | cA A/c/B/A/ | GE E>E | DB B/c/B/A/ | GE Ee/d/ |
cA A/c/B/A/ | G/A/B/c/ d/e/f/g/ | a/e/c/e/ f/a/e/d/ | cA A2 :|
e | f/e/c/e/ a/g/f/e/ | fc c>e | f/e/c/e/ a/g/f/e/ | dB B>e |
f/e/c/e/ a/g/f/e/ | f/e/f/g/ a/g/f/e/ | d/c/B/A/ G/f/e/d/ | cA A2 :|

